flaticon/design/square-1.svg

<svg xmlns="http://www.w3.org/2000/svg" width="32" height="32" viewBox="0 0 24 24">
    <path d="M 0 0 L 0 24 L 24 24 L 24 0 Z M 23.199219 23.199219 L 0.800781 23.199219 L 0.800781 0.800781 L 23.199219 0.800781 Z M 23.199219 23.199219"/>
    <path d="M 22 22 L 22 2 L 2 2 L 2 22 Z M 12.398438 21.199219 L 12.398438 12.398438 L 21.199219 12.398438 L 21.199219 21.199219 Z M 21.199219 11.601562 L 12.398438 11.601562 L 12.398438 2.800781 L 21.199219 2.800781 Z M 11.601562 2.800781 L 11.601562 11.601562 L 2.800781 11.601562 L 2.800781 2.800781 Z M 2.800781 12.398438 L 11.601562 12.398438 L 11.601562 21.199219 L 2.800781 21.199219 Z M 2.800781 12.398438"/>
</svg>

<svg xmlns="http://www.w3.org/2000/svg" width="32" height="32" viewBox="0 0 24 24">
    <path d="M0 0v24h24V0zm23.2 23.2H.8V.8h22.4zm0 0"/>
    <path d="M22 22V2H2v20zm-9.602-.8v-8.802H21.2V21.2zm8.801-9.598h-8.8V2.8h8.8zM11.602 2.8v8.8H2.8v-8.8zM2.8 12.398h8.8V21.2h-8.8zm0 0"/>
</svg>
